;FLAVOR:Marlin
;TIME:504
;Filament used: 0.3424m
;Layer height: 0.2
;MINX:68.524
;MINY:94.25
;MINZ:0.3
;MAXX:151.498
;MAXY:134.223
;MAXZ:1.3
;Generated with Creality Slicer 4.8.2-279
M140 S100
M105
M190 S100
M104 S230
M105
M109 S230
M82 ;absolute extrusion mode

G28 ;Home

G92 E0 ;Reset Extruder
G1 Z2.0 F3000 ;Move Z Axis up
G1 X10.1 Y20 Z0.28 F5000.0 ;Move to start position
G1 X10.1 Y200.0 Z0.28 F1500.0 E15 ;Draw the first line
G1 X10.4 Y200.0 Z0.28 F5000.0 ;Move to side a little
G1 X10.4 Y20 Z0.28 F1500.0 E30 ;Draw the second line
G92 E0 ;Reset Extruder
G1 Z2.0 F3000 ;Move Z Axis up

G92 E0
G92 E0
G1 F3600 E-5
;LAYER_COUNT:6
;LAYER:0
M107
G0 F6000 X74.263 Y100.325 Z0.3
;TYPE:SKIRT
G1 F3600 E0
G1 F1200 X74.802 Y99.94 E0.03305
G1 X75.011 Y99.8 E0.0456
G1 X75.812 Y99.312 E0.09239
G1 X76.59 Y98.921 E0.13583
G1 X76.837 Y98.809 E0.14936
G1 X77.736 Y98.448 E0.19769
G1 X78.633 Y98.174 E0.24449
G1 X79.55 Y97.977 E0.29128
G1 X80.48 Y97.859 E0.33805
G1 X81.417 Y97.821 E0.38484
G1 X82.001 Y97.838 E0.41398
G1 X83.01 Y97.894 E0.4644
G1 X83.95 Y97.959 E0.51141
G1 X86.492 Y98.064 E0.63834
G1 X88.949 Y98.097 E0.76093
G1 X93.73 Y98.097 E0.99945
G1 X96.338 Y98.06 E1.12958
G1 X98.86 Y97.953 E1.25552
G1 X101.355 Y97.776 E1.38031
G1 X103.853 Y97.528 E1.50555
G1 X106.342 Y97.21 E1.63073
G1 X108.851 Y96.816 E1.75744
G1 X111.317 Y96.357 E1.88258
G1 X113.768 Y95.83 E2.00766
G1 X116.232 Y95.226 E2.13423
G1 X118.023 Y94.733 E2.2269
G1 X118.404 Y94.633 E2.24656
G1 X119.321 Y94.434 E2.29337
G1 X120.251 Y94.314 E2.34015
G1 X120.971 Y94.275 E2.37613
G1 X122.088 Y94.252 E2.43186
G1 X122.314 Y94.25 E2.44314
G1 X131.844 Y94.25 E2.91859
G1 X132.704 Y94.261 E2.9615
G1 X133.641 Y94.314 E3.00832
G1 X134.569 Y94.447 E3.0551
G1 X135.483 Y94.659 E3.10191
G1 X136.375 Y94.947 E3.14867
G1 X137.487 Y95.431 E3.20918
G1 X138.248 Y95.815 E3.2517
G1 X140.185 Y96.826 E3.36071
G1 X142.471 Y97.99 E3.48869
G1 X144.549 Y98.977 E3.60346
G1 X145.082 Y99.222 E3.63273
G1 X145.917 Y99.65 E3.67954
G1 X146.712 Y100.148 E3.72634
G1 X147.462 Y100.711 E3.77313
G1 X148.161 Y101.337 E3.81995
G1 X148.804 Y102.019 E3.86671
G1 X149.387 Y102.754 E3.91351
G1 X149.905 Y103.536 E3.96031
G1 X150.354 Y104.359 E4.00708
G1 X150.732 Y105.217 E4.05386
G1 X151.035 Y106.105 E4.10067
G1 X151.262 Y107.015 E4.14746
G1 X151.41 Y107.941 E4.19425
G1 X151.478 Y108.855 E4.23997
G1 X151.487 Y109.201 E4.25724
G1 X151.493 Y109.718 E4.28303
G1 X151.498 Y111.008 E4.34739
G1 X151.493 Y111.138 E4.35388
G1 X151.492 Y117.809 E4.6867
G1 X151.482 Y118.532 E4.72277
G1 X151.429 Y119.469 E4.7696
G1 X151.297 Y120.397 E4.81636
G1 X151.085 Y121.311 E4.86317
G1 X150.797 Y122.203 E4.90994
G1 X150.434 Y123.068 E4.95674
G1 X149.999 Y123.899 E5.00353
G1 X149.494 Y124.689 E5.05031
G1 X148.924 Y125.434 E5.09711
G1 X148.292 Y126.127 E5.1439
G1 X147.604 Y126.764 E5.19068
G1 X146.864 Y127.34 E5.23746
G1 X146.355 Y127.681 E5.26803
G1 X145.513 Y128.212 E5.31769
G1 X138.716 Y132.347 E5.71462
G1 X138.136 Y132.688 E5.74818
G1 X137.308 Y133.128 E5.79496
G1 X136.446 Y133.496 E5.84172
G1 X135.555 Y133.79 E5.88853
G1 X134.642 Y134.006 E5.93534
G1 X133.715 Y134.144 E5.9821
G1 X132.767 Y134.203 E6.02949
G1 X131.805 Y134.221 E6.07749
G1 X131.599 Y134.223 E6.08777
G1 X121.803 Y134.222 E6.57649
G1 X121.099 Y134.212 E6.61162
G1 X120.162 Y134.159 E6.65844
G1 X119.234 Y134.026 E6.70521
G1 X117.886 Y133.684 E6.77459
G1 X115.307 Y132.854 E6.90976
G1 X112.852 Y132.141 E7.0373
G1 X110.42 Y131.509 E7.16266
G1 X107.945 Y130.938 E7.28939
G1 X105.512 Y130.452 E7.41317
G1 X103.002 Y130.022 E7.54021
G1 X100.528 Y129.67 E7.66489
G1 X99.286 Y129.509 E7.72737
G1 X96.623 Y129.13 E7.86156
G1 X94.153 Y128.848 E7.98559
G1 X91.614 Y128.631 E8.11273
G1 X89.113 Y128.49 E8.2377
G1 X86.598 Y128.417 E8.36323
G1 X86.396 Y128.416 E8.37331
G1 X86.144 Y128.411 E8.38588
G1 X85.643 Y128.396 E8.41089
G1 X84.375 Y128.284 E8.47439
G1 X84.116 Y128.246 E8.48745
G1 X83.195 Y128.071 E8.53422
G1 X82.084 Y127.747 E8.59196
G1 X81.815 Y127.653 E8.60618
G1 X81.377 Y127.489 E8.62951
G1 X81.181 Y127.411 E8.64004
G1 X80.899 Y127.295 E8.65525
G1 X80.367 Y127.066 E8.68414
G1 X79.522 Y126.659 E8.73094
G1 X78.715 Y126.181 E8.77773
G1 X77.951 Y125.636 E8.82455
G1 X77.262 Y125.052 E8.86961
G1 X76.295 Y124.161 E8.93521
G1 X75.503 Y123.412 E8.9896
G1 X74.619 Y122.552 E9.05113
G1 X73.158 Y121.16 E9.1518
G1 X72.663 Y120.698 E9.18558
G1 X72.003 Y120.026 E9.23258
G1 X71.864 Y119.872 E9.24293
G1 X71.67 Y119.651 E9.2576
G1 X71.493 Y119.444 E9.27119
G1 X71.023 Y118.855 E9.30878
G1 X70.89 Y118.676 E9.31991
G1 X70.364 Y117.9 E9.36668
G1 X69.905 Y117.082 E9.41347
G1 X69.638 Y116.515 E9.44474
G1 X69.542 Y116.295 E9.45671
G1 X69.136 Y115.212 E9.51442
G1 X69.05 Y114.94 E9.52865
G1 X68.805 Y114.035 E9.57543
G1 X68.591 Y112.701 E9.64283
G1 X68.579 Y112.579 E9.64895
G1 X68.532 Y111.852 E9.68529
G1 X68.524 Y111.601 E9.69782
G1 X68.534 Y110.664 E9.74457
G1 X68.624 Y109.73 E9.79138
G1 X68.786 Y108.836 E9.83671
G1 X68.885 Y108.404 E9.85882
G1 X68.915 Y108.281 E9.86514
G1 X69.176 Y107.381 E9.91189
G1 X69.513 Y106.505 E9.95872
G1 X70.083 Y105.375 E10.02186
G1 X70.44 Y104.752 E10.05768
G1 X70.609 Y104.467 E10.07421
G1 X71.155 Y103.636 E10.12382
G1 X71.267 Y103.481 E10.13336
G1 X71.866 Y102.724 E10.18152
G1 X72.458 Y102.04 E10.22665
G1 X72.725 Y101.742 E10.24661
G1 X72.874 Y101.582 E10.25752
G1 X73.542 Y100.924 E10.3043
G1 X74.263 Y100.325 E10.35107
G0 F6000 X74.533 Y100.623
G1 F1200 X75.025 Y100.272 E10.38122
G1 X75.234 Y100.132 E10.39377
G1 X76.02 Y99.654 E10.43966
G1 X76.756 Y99.285 E10.48074
G1 X77.003 Y99.173 E10.49427
G1 X77.869 Y98.825 E10.54083
G1 X78.75 Y98.557 E10.58678
G1 X79.65 Y98.366 E10.63268
G1 X80.564 Y98.254 E10.67862
G1 X81.484 Y98.221 E10.72455
G1 X81.979 Y98.237 E10.74925
G1 X82.982 Y98.293 E10.79937
G1 X83.942 Y98.359 E10.84738
G1 X86.47 Y98.464 E10.97361
G1 X88.943 Y98.497 E11.097
G1 X93.736 Y98.497 E11.33612
G1 X96.361 Y98.46 E11.4671
G1 X98.869 Y98.353 E11.59234
G1 X101.386 Y98.175 E11.71822
G1 X103.91 Y97.925 E11.84476
G1 X106.418 Y97.604 E11.97091
G1 X108.88 Y97.217 E12.09525
G1 X111.402 Y96.748 E12.22323
G1 X113.876 Y96.216 E12.34948
G1 X116.328 Y95.615 E12.47543
G1 X118.125 Y95.12 E12.56842
G1 X118.506 Y95.02 E12.58807
G1 X119.406 Y94.825 E12.63402
G1 X120.319 Y94.709 E12.67993
G1 X120.979 Y94.675 E12.7129
G1 X122.096 Y94.652 E12.76864
G1 X122.314 Y94.65 E12.77952
G1 X131.844 Y94.65 E13.25497
G1 X132.699 Y94.661 E13.29763
G1 X133.618 Y94.714 E13.34356
G1 X134.529 Y94.847 E13.38949
G1 X135.425 Y95.058 E13.43541
G1 X136.299 Y95.346 E13.48132
G1 X137.307 Y95.788 E13.53623
G1 X137.916 Y96.094 E13.57024
G1 X139.909 Y97.134 E13.68239
G1 X142.292 Y98.347 E13.8158
G1 X144.456 Y99.375 E13.93532
G1 X144.915 Y99.586 E13.96053
G1 X145.734 Y100.006 E14.00645
G1 X146.513 Y100.497 E14.05239
G1 X147.247 Y101.053 E14.09832
G1 X147.93 Y101.67 E14.14424
G1 X148.556 Y102.345 E14.19017
G1 X149.122 Y103.071 E14.2361
G1 X149.623 Y103.844 E14.28206
G1 X150.054 Y104.657 E14.32797
G1 X150.414 Y105.505 E14.37393
G1 X150.698 Y106.381 E14.41987
G1 X150.905 Y107.277 E14.46575
G1 X151.034 Y108.189 E14.5117
G1 X151.078 Y108.868 E14.54565
G1 X151.087 Y109.205 E14.56247
G1 X151.093 Y109.718 E14.58806
G1 X151.098 Y111.01 E14.65252
G1 X151.093 Y111.138 E14.65891
G1 X151.092 Y117.804 E14.99148
G1 X151.082 Y118.527 E15.02755
G1 X151.029 Y119.446 E15.07348
G1 X150.897 Y120.357 E15.1194
G1 X150.686 Y121.253 E15.16533
G1 X150.398 Y122.128 E15.21129
G1 X150.036 Y122.974 E15.25719
G1 X149.601 Y123.785 E15.30311
G1 X149.098 Y124.556 E15.34904
G1 X148.529 Y125.28 E15.39498
G1 X147.9 Y125.953 E15.44093
G1 X147.215 Y126.568 E15.48686
G1 X146.142 Y127.343 E15.5529
G1 X145.305 Y127.87 E15.60224
G1 X138.513 Y132.002 E15.99888
G1 X137.933 Y132.343 E16.03244
G1 X137.12 Y132.774 E16.07835
G1 X136.273 Y133.134 E16.12427
G1 X135.397 Y133.419 E16.17023
G1 X134.5 Y133.626 E16.21615
G1 X133.589 Y133.755 E16.26206
G1 X132.759 Y133.803 E16.30354
G1 X131.599 Y133.823 E16.36142
G1 X121.808 Y133.822 E16.84989
G1 X121.104 Y133.812 E16.88502
G1 X120.185 Y133.759 E16.93094
G1 X119.274 Y133.626 E16.97687
G1 X118.009 Y133.304 E17.042
G1 X115.373 Y132.456 E17.18015
G1 X113.002 Y131.767 E17.30333
G1 X110.504 Y131.118 E17.43209
G1 X108.04 Y130.55 E17.55825
G1 X105.586 Y130.059 E17.6831
G1 X103.054 Y129.625 E17.81127
G1 X100.547 Y129.269 E17.9376
G1 X99.343 Y129.113 E17.99817
G1 X96.693 Y128.735 E18.13171
G1 X94.161 Y128.447 E18.25885
G1 X91.669 Y128.234 E18.38363
G1 X89.148 Y128.091 E18.50961
G1 X86.565 Y128.017 E18.63852
G1 X86.156 Y128.011 E18.65893
G1 X85.655 Y127.996 E18.68394
G1 X84.433 Y127.889 E18.74514
G1 X84.174 Y127.851 E18.7582
G1 X83.27 Y127.678 E18.80412
G1 X82.216 Y127.37 E18.8589
G1 X81.947 Y127.276 E18.87312
G1 X81.525 Y127.118 E18.8956
G1 X81.329 Y127.04 E18.90612
G1 X81.057 Y126.927 E18.92082
G1 X80.525 Y126.698 E18.94971
G1 X79.696 Y126.298 E18.99563
G1 X78.905 Y125.827 E19.04156
G1 X78.157 Y125.289 E19.08753
G1 X77.533 Y124.757 E19.12844
G1 X76.566 Y123.866 E19.19404
G1 X76.109 Y123.431 E19.22552
G1 X76.008 Y123.339 E19.23234
G1 X75.782 Y123.125 E19.24786
G1 X74.892 Y122.258 E19.30985
G1 X73.431 Y120.867 E19.41049
G1 X72.936 Y120.405 E19.44427
G1 X72.3 Y119.758 E19.48954
G1 X72.161 Y119.604 E19.49989
G1 X71.974 Y119.391 E19.51403
G1 X71.797 Y119.184 E19.52762
G1 X71.345 Y118.617 E19.56379
G1 X71.212 Y118.438 E19.57492
G1 X70.695 Y117.676 E19.62086
G1 X70.247 Y116.872 E19.66678
G1 X70.005 Y116.355 E19.69526
G1 X69.909 Y116.135 E19.70723
G1 X69.517 Y115.092 E19.76282
G1 X69.431 Y114.82 E19.77705
G1 X69.192 Y113.931 E19.82298
G1 X68.989 Y112.662 E19.8871
G1 X68.977 Y112.54 E19.89321
G1 X68.931 Y111.84 E19.92821
G1 X68.923 Y111.589 E19.94074
G1 X68.934 Y110.668 E19.98669
G1 X69.025 Y109.752 E20.03262
G1 X69.177 Y108.924 E20.07462
G1 X69.274 Y108.499 E20.09636
G1 X69.304 Y108.376 E20.10268
G1 X69.561 Y107.492 E20.14861
G1 X69.893 Y106.634 E20.19451
G1 X70.429 Y105.575 E20.25372
G1 X70.557 Y105.354 E20.26647
G1 X70.784 Y104.956 E20.28932
G1 X70.953 Y104.671 E20.30585
G1 X71.479 Y103.87 E20.35366
G1 X71.591 Y103.715 E20.3632
G1 X72.168 Y102.986 E20.40959
G1 X72.76 Y102.302 E20.45472
G1 X73.018 Y102.015 E20.47397
G1 X73.167 Y101.855 E20.48488
G1 X73.823 Y101.209 E20.53081
G1 X74.533 Y100.623 E20.57674
G0 F6000 X74.801 Y100.921
G1 F1200 X75.247 Y100.605 E20.60401
G1 X75.456 Y100.465 E20.61656
G1 X76.228 Y99.996 E20.66163
G1 X76.921 Y99.649 E20.70029
G1 X77.168 Y99.537 E20.71382
G1 X78.002 Y99.202 E20.75866
G1 X78.866 Y98.94 E20.80371
G1 X79.75 Y98.755 E20.84876
G1 X80.647 Y98.649 E20.89383
G1 X81.958 Y98.636 E20.95924
G1 X82.955 Y98.692 E21.00906
G1 X83.934 Y98.76 E21.05802
G1 X86.449 Y98.864 E21.1836
G1 X88.938 Y98.897 E21.30778
G1 X93.742 Y98.897 E21.54746
G1 X96.348 Y98.86 E21.67748
G1 X98.916 Y98.751 E21.80572
G1 X101.418 Y98.574 E21.93085
G1 X103.93 Y98.325 E22.05679
G1 X106.493 Y97.997 E22.1857
G1 X108.978 Y97.606 E22.31121
G1 X111.461 Y97.145 E22.4372
G1 X113.942 Y96.611 E22.56381
G1 X116.433 Y96 E22.69177
G1 X118.227 Y95.507 E22.7846
G1 X118.608 Y95.407 E22.80425
G1 X119.49 Y95.217 E22.84926
G1 X120.387 Y95.105 E22.89436
G1 X120.987 Y95.075 E22.92433
G1 X122.104 Y95.052 E22.98007
G1 X122.314 Y95.05 E22.99055
G1 X131.844 Y95.05 E23.466
G1 X132.693 Y95.061 E23.50836
G1 X133.594 Y95.114 E23.55339
G1 X134.488 Y95.246 E23.59847
G1 X135.366 Y95.457 E23.64353
G1 X136.222 Y95.745 E23.68858
G1 X137.128 Y96.146 E23.73801
G1 X137.878 Y96.524 E23.77992
G1 X139.822 Y97.539 E23.88933
G1 X142.093 Y98.695 E24.01646
G1 X144.264 Y99.726 E24.13637
G1 X144.748 Y99.949 E24.16295
G1 X145.551 Y100.363 E24.20802
G1 X146.314 Y100.845 E24.25305
G1 X147.032 Y101.394 E24.29814
G1 X147.698 Y102.004 E24.3432
G1 X148.307 Y102.67 E24.38822
G1 X148.856 Y103.388 E24.43332
G1 X149.338 Y104.151 E24.47834
G1 X149.751 Y104.954 E24.52339
G1 X150.092 Y105.79 E24.56844
G1 X150.357 Y106.654 E24.61352
G1 X150.545 Y107.537 E24.65856
G1 X150.679 Y108.881 E24.72595
G1 X150.687 Y109.21 E24.74237
G1 X150.693 Y109.719 E24.76776
G1 X150.698 Y111.012 E24.83227
G1 X150.693 Y111.137 E24.83851
G1 X150.692 Y117.798 E25.17083
G1 X150.682 Y118.521 E25.20691
G1 X150.63 Y119.423 E25.25198
G1 X150.498 Y120.316 E25.29702
G1 X150.287 Y121.194 E25.34207
G1 X150 Y122.05 E25.38711
G1 X149.638 Y122.878 E25.4322
G1 X149.204 Y123.67 E25.47725
G1 X148.702 Y124.421 E25.52232
G1 X148.135 Y125.124 E25.56738
G1 X147.509 Y125.774 E25.6124
G1 X146.827 Y126.367 E25.65749
G1 X145.928 Y127.005 E25.71249
G1 X145.097 Y127.528 E25.76147
G1 X138.311 Y131.657 E26.15777
G1 X137.731 Y131.998 E26.19134
G1 X136.933 Y132.421 E26.2364
G1 X136.1 Y132.771 E26.28148
G1 X135.24 Y133.047 E26.32654
G1 X134.359 Y133.245 E26.37159
G1 X133.464 Y133.365 E26.41664
G1 X132.752 Y133.403 E26.45221
G1 X131.599 Y133.423 E26.50975
G1 X121.814 Y133.422 E26.99792
G1 X121.11 Y133.412 E27.03305
G1 X120.209 Y133.359 E27.07808
G1 X119.315 Y133.227 E27.12316
G1 X118.131 Y132.923 E27.18415
G1 X115.501 Y132.077 E27.32198
G1 X113.066 Y131.37 E27.44848
G1 X110.624 Y130.734 E27.57438
G1 X108.111 Y130.155 E27.70303
G1 X105.654 Y129.664 E27.82804
G1 X103.147 Y129.235 E27.95493
G1 X100.577 Y128.869 E28.08444
G1 X99.399 Y128.717 E28.1437
G1 X96.758 Y128.341 E28.27679
G1 X94.201 Y128.05 E28.40518
G1 X91.695 Y127.835 E28.53067
G1 X89.145 Y127.691 E28.65809
G1 X86.58 Y127.617 E28.78611
G1 X86.168 Y127.611 E28.80667
G1 X85.667 Y127.596 E28.83167
G1 X84.491 Y127.493 E28.89057
G1 X84.232 Y127.455 E28.90363
G1 X83.345 Y127.284 E28.9487
G1 X82.348 Y126.992 E29.00053
G1 X82.079 Y126.898 E29.01474
G1 X81.672 Y126.746 E29.03642
G1 X81.476 Y126.668 E29.04694
G1 X81.215 Y126.56 E29.06103
G1 X80.683 Y126.331 E29.08993
G1 X79.87 Y125.937 E29.135
G1 X79.095 Y125.474 E29.18004
G1 X78.364 Y124.943 E29.22512
G1 X77.804 Y124.463 E29.26192
G1 X76.837 Y123.572 E29.32752
G1 X76.371 Y123.129 E29.35959
G1 X76.278 Y123.044 E29.36588
G1 X76.061 Y122.838 E29.38081
G1 X75.164 Y121.965 E29.44326
G1 X73.704 Y120.575 E29.54383
G1 X73.209 Y120.113 E29.57761
G1 X72.597 Y119.49 E29.62118
G1 X72.458 Y119.336 E29.63153
G1 X72.278 Y119.131 E29.64514
G1 X72.101 Y118.924 E29.65873
G1 X71.666 Y118.378 E29.69355
G1 X71.533 Y118.199 E29.70468
G1 X71.027 Y117.451 E29.74973
G1 X70.589 Y116.661 E29.7948
G1 X70.371 Y116.195 E29.82047
G1 X70.275 Y115.975 E29.83244
G1 X69.899 Y114.971 E29.88593
G1 X69.813 Y114.699 E29.90016
G1 X69.579 Y113.827 E29.9452
G1 X69.387 Y112.622 E30.00608
G1 X69.375 Y112.5 E30.0122
G1 X69.331 Y111.827 E30.04584
G1 X69.323 Y111.576 E30.05837
G1 X69.334 Y110.673 E30.10343
G1 X69.425 Y109.774 E30.14851
G1 X69.567 Y109.012 E30.18718
G1 X69.662 Y108.594 E30.20856
G1 X69.692 Y108.471 E30.21488
G1 X69.945 Y107.604 E30.25994
G1 X70.273 Y106.763 E30.30498
G1 X70.776 Y105.776 E30.36024
G1 X71.129 Y105.16 E30.39566
G1 X71.298 Y104.875 E30.41219
G1 X71.803 Y104.104 E30.45818
G1 X71.915 Y103.949 E30.46772
G1 X72.471 Y103.248 E30.51236
G1 X73.063 Y102.564 E30.55749
G1 X73.31 Y102.288 E30.57597
G1 X73.459 Y102.128 E30.58687
G1 X74.104 Y101.495 E30.63196
G1 X74.801 Y100.921 E30.67701
G1 F3600 E25.67701
G0 F6000 X80.574 Y108.501
G0 X81.052 Y109.221
;TYPE:SUPPORT-INTERFACE
G1 F3600 E30.67701
G1 F1200 X81.244 Y109.094 E30.68849
G1 X81.261 Y109.086 E30.68943
G1 X81.328 Y109.297 E30.70047
G1 X117.126 Y109.296 E32.48644
G1 X117.268 Y109.24 E32.49406
G1 X117.595 Y108.934 E32.5164
G1 X117.452 Y108.573 E32.53577
G1 X117.525 Y108.509 E32.54062
G1 X117.924 Y108.103 E32.56902
G1 X118.19 Y108.378 E32.58811
G1 X120.152 Y106.546 E32.72203
G1 X121.33 Y105.45 E32.8023
G1 X132.503 Y105.45 E33.35972
G1 X134.624 Y106.556 E33.47906
G1 X140.293 Y109.548 E33.79887
