;FLAVOR:Marlin
;TIME:2466
;Filament used: 1.155m
;Layer height: 0.16
;MINX:71.236
;MINY:83.508
;MINZ:0.2
;MAXX:148.768
;MAXY:136.488
;MAXZ:2.36
;Generated with Creality Slicer 4.8.2-279
M140 S75
M105
M190 S75
M104 S230
M105
M109 S230
M82 ;absolute extrusion mode

G28 ;Home

G92 E0 ;Reset Extruder
G1 Z2.0 F3000 ;Move Z Axis up
G1 X10.1 Y20 Z0.28 F5000.0 ;Move to start position
G1 X10.1 Y200.0 Z0.28 F1500.0 E15 ;Draw the first line
G1 X10.4 Y200.0 Z0.28 F5000.0 ;Move to side a little
G1 X10.4 Y20 Z0.28 F1500.0 E30 ;Draw the second line
G92 E0 ;Reset Extruder
G1 Z2.0 F3000 ;Move Z Axis up

G92 E0
G92 E0
G1 F3600 E-5
;LAYER_COUNT:19
;LAYER:0
M107
G0 F6000 X82.924 Y85.539 Z0.2
;TYPE:SKIRT
G1 F3600 E0
G1 F1200 X83.534 Y85.037 E0.02628
G1 X84.192 Y84.6 E0.05255
G1 X84.89 Y84.231 E0.07881
G1 X85.622 Y83.935 E0.10507
G1 X86.38 Y83.714 E0.13133
G1 X87.157 Y83.571 E0.15761
G1 X87.944 Y83.508 E0.18387
G1 X88.54 Y83.512 E0.20369
G1 X100.533 Y84.069 E0.60301
G1 X101.319 Y84.146 E0.62928
G1 X102.093 Y84.302 E0.65554
G1 X102.848 Y84.535 E0.68182
G1 X103.575 Y84.843 E0.70808
G1 X104.267 Y85.223 E0.73434
G1 X104.917 Y85.671 E0.76059
G1 X105.519 Y86.183 E0.78688
G1 X106.065 Y86.752 E0.81311
G1 X106.552 Y87.375 E0.83941
G1 X106.973 Y88.043 E0.86567
G1 X107.324 Y88.75 E0.89192
G1 X107.508 Y89.213 E0.90849
G1 X110.729 Y98.138 E1.22408
G1 X112.782 Y98.143 E1.29236
G1 X113.95 Y98.137 E1.33121
G1 X139.107 Y98.209 E2.16794
G1 X139.896 Y98.251 E2.19422
G1 X140.676 Y98.373 E2.22048
G1 X141.44 Y98.573 E2.24675
G1 X142.18 Y98.849 E2.27301
G1 X142.743 Y99.12 E2.2938
G1 X143.259 Y99.394 E2.31323
G1 X143.937 Y99.799 E2.33949
G1 X144.57 Y100.271 E2.36576
G1 X145.322 Y100.981 E2.40016
G1 X146.335 Y102.074 E2.44972
G1 X146.842 Y102.68 E2.476
G1 X147.285 Y103.333 E2.50225
G1 X147.732 Y104.186 E2.53428
G1 X148.086 Y104.976 E2.56307
G1 X148.372 Y105.712 E2.58933
G1 X148.582 Y106.474 E2.61562
G1 X148.714 Y107.252 E2.64187
G1 X148.768 Y108.166 E2.67232
G1 X148.768 Y108.504 E2.68356
G1 X148.728 Y109.293 E2.70984
G1 X148.609 Y110.073 E2.73608
G1 X148.422 Y110.801 E2.76108
G1 X148.128 Y111.755 E2.79428
G1 X147.858 Y112.497 E2.82054
G1 X147.513 Y113.208 E2.84683
G1 X147.099 Y113.88 E2.87308
G1 X146.619 Y114.507 E2.89935
G1 X146.078 Y115.082 E2.9256
G1 X145.669 Y115.449 E2.94388
G1 X145.035 Y115.977 E2.97132
G1 X144.808 Y116.214 E2.98224
G1 X144.233 Y116.755 E3.0085
G1 X143.607 Y117.236 E3.03475
G1 X142.934 Y117.65 E3.06103
G1 X142.224 Y117.994 E3.08727
G1 X141.482 Y118.265 E3.11355
G1 X140.716 Y118.46 E3.13984
G1 X139.935 Y118.576 E3.1661
G1 X139.204 Y118.612 E3.19044
G1 X111.768 Y118.689 E4.10297
G1 X111.661 Y118.912 E4.1112
G1 X111.25 Y119.586 E4.13745
G1 X110.957 Y119.973 E4.1536
G1 X106.351 Y131.574 E4.56875
G1 X106.022 Y132.292 E4.59502
G1 X105.623 Y132.974 E4.6213
G1 X105.157 Y133.611 E4.64755
G1 X104.629 Y134.198 E4.67381
G1 X104.045 Y134.729 E4.70006
G1 X103.409 Y135.198 E4.72634
G1 X102.73 Y135.6 E4.75259
G1 X102.013 Y135.932 E4.77887
G1 X101.266 Y136.189 E4.80514
G1 X100.498 Y136.37 E4.83139
G1 X99.715 Y136.472 E4.85765
G1 X98.739 Y136.488 E4.89012
G1 X86.108 Y135.901 E5.31068
G1 X85.322 Y135.824 E5.33695
G1 X84.548 Y135.668 E5.36321
G1 X83.793 Y135.435 E5.38949
G1 X83.066 Y135.127 E5.41575
G1 X82.374 Y134.747 E5.44201
G1 X81.724 Y134.299 E5.46826
G1 X81.122 Y133.787 E5.49455
G1 X80.705 Y133.363 E5.51433
G1 X73.267 Y125.202 E5.88158
G1 X72.765 Y124.592 E5.90786
G1 X72.328 Y123.935 E5.9341
G1 X71.959 Y123.237 E5.96036
G1 X71.663 Y122.505 E5.98663
G1 X71.442 Y121.746 E6.01292
G1 X71.299 Y120.97 E6.03916
G1 X71.236 Y120.183 E6.06542
G1 X71.24 Y119.586 E6.08528
G1 X72.224 Y98.38 E6.79135
G1 X72.301 Y97.594 E6.81762
G1 X72.456 Y96.82 E6.84388
G1 X72.689 Y96.066 E6.87012
G1 X72.998 Y95.339 E6.8964
G1 X73.378 Y94.646 E6.92268
G1 X73.826 Y93.996 E6.94894
G1 X74.337 Y93.395 E6.97518
G1 X74.762 Y92.977 E6.99501
G1 X82.924 Y85.539 E7.36229
G0 F6000 X83.194 Y85.834
G1 F1200 X83.788 Y85.347 E7.38784
G1 X84.43 Y84.923 E7.41343
G1 X85.113 Y84.569 E7.43901
G1 X85.829 Y84.287 E7.46461
G1 X86.57 Y84.081 E7.49019
G1 X87.328 Y83.953 E7.51576
G1 X88.096 Y83.904 E7.54135
G1 X88.521 Y83.912 E7.55549
G1 X100.514 Y84.469 E7.95481
G1 X101.28 Y84.545 E7.98041
G1 X102.033 Y84.699 E8.00597
G1 X102.767 Y84.931 E8.03158
G1 X103.472 Y85.238 E8.05715
G1 X104.141 Y85.616 E8.08271
G1 X104.768 Y86.062 E8.1083
G1 X105.345 Y86.571 E8.13389
G1 X105.866 Y87.136 E8.15945
G1 X106.326 Y87.753 E8.18505
G1 X106.719 Y88.414 E8.21063
G1 X107.132 Y89.349 E8.24463
G1 X110.448 Y98.537 E8.56951
G1 X112.783 Y98.543 E8.64718
G1 X113.949 Y98.537 E8.68596
G1 X139.106 Y98.609 E9.52269
G1 X139.874 Y98.651 E9.54827
G1 X140.634 Y98.773 E9.57387
G1 X141.376 Y98.973 E9.59943
G1 X142.094 Y99.249 E9.62501
G1 X142.556 Y99.473 E9.64209
G1 X143.072 Y99.747 E9.66152
G1 X143.731 Y100.143 E9.68709
G1 X144.346 Y100.605 E9.71268
G1 X145.028 Y101.253 E9.74397
G1 X146.041 Y102.346 E9.79353
G1 X146.534 Y102.936 E9.81911
G1 X146.963 Y103.575 E9.8447
G1 X147.367 Y104.35 E9.87377
G1 X147.721 Y105.14 E9.90257
G1 X147.999 Y105.857 E9.92814
G1 X148.2 Y106.6 E9.95374
G1 X148.324 Y107.359 E9.97932
G1 X148.368 Y108.166 E10.0062
G1 X148.368 Y108.504 E10.01745
G1 X148.328 Y109.272 E10.04302
G1 X148.209 Y110.032 E10.06861
G1 X148.04 Y110.683 E10.09098
G1 X147.746 Y111.637 E10.12418
G1 X147.481 Y112.36 E10.14979
G1 X147.143 Y113.051 E10.17538
G1 X146.736 Y113.703 E10.20094
G1 X146.262 Y114.309 E10.22653
G1 X145.729 Y114.863 E10.2521
G1 X145.413 Y115.142 E10.26612
G1 X144.763 Y115.684 E10.29427
G1 X144.52 Y115.937 E10.30594
G1 X143.959 Y116.464 E10.33154
G1 X143.347 Y116.929 E10.3571
G1 X142.689 Y117.328 E10.3827
G1 X141.994 Y117.657 E10.40827
G1 X141.268 Y117.912 E10.43387
G1 X140.52 Y118.09 E10.45944
G1 X139.757 Y118.19 E10.48503
G1 X139.203 Y118.212 E10.50347
G1 X111.517 Y118.29 E11.42432
G1 X111.261 Y118.809 E11.44357
G1 X110.851 Y119.46 E11.46915
G1 X110.606 Y119.771 E11.48232
G1 X105.979 Y131.426 E11.8994
G1 X105.658 Y132.126 E11.92501
G1 X105.267 Y132.788 E11.95058
G1 X104.809 Y133.406 E11.97617
G1 X104.289 Y133.973 E12.00176
G1 X103.713 Y134.483 E12.02735
G1 X103.088 Y134.93 E12.0529
G1 X102.419 Y135.31 E12.07849
G1 X101.715 Y135.619 E12.10406
G1 X100.982 Y135.853 E12.12966
G1 X100.229 Y136.01 E12.15524
G1 X99.464 Y136.087 E12.18081
G1 X98.757 Y136.088 E12.20433
G1 X86.126 Y135.501 E12.62489
G1 X85.361 Y135.425 E12.65046
G1 X84.608 Y135.271 E12.67602
G1 X83.874 Y135.039 E12.70162
G1 X83.169 Y134.732 E12.7272
G1 X82.499 Y134.354 E12.75279
G1 X81.873 Y133.908 E12.77835
G1 X81.296 Y133.399 E12.80394
G1 X81.001 Y133.094 E12.81805
G1 X73.563 Y124.933 E13.18531
G1 X73.075 Y124.338 E13.21091
G1 X72.651 Y123.696 E13.2365
G1 X72.297 Y123.013 E13.26208
G1 X72.015 Y122.298 E13.28765
G1 X71.809 Y121.557 E13.31323
G1 X71.681 Y120.798 E13.33883
G1 X71.632 Y120.031 E13.36439
G1 X71.64 Y119.605 E13.37856
G1 X72.624 Y98.399 E14.08464
G1 X72.699 Y97.634 E14.1102
G1 X72.854 Y96.88 E14.1358
G1 X73.086 Y96.147 E14.16138
G1 X73.393 Y95.441 E14.18698
G1 X73.771 Y94.772 E14.21254
G1 X74.217 Y94.145 E14.23813
G1 X74.726 Y93.568 E14.26372
G1 X75.032 Y93.272 E14.27788
G1 X83.194 Y85.834 E14.64517
G0 F6000 X83.463 Y86.13
G1 F1200 X84.042 Y85.656 E14.67005
G1 X84.668 Y85.247 E14.69492
G1 X85.335 Y84.907 E14.71982
G1 X86.034 Y84.641 E14.7447
G1 X86.757 Y84.45 E14.76957
G1 X87.496 Y84.337 E14.79444
G1 X88.503 Y84.312 E14.82794
G1 X100.496 Y84.869 E15.22726
G1 X101.24 Y84.943 E15.25213
G1 X101.972 Y85.097 E15.27701
G1 X102.684 Y85.328 E15.3019
G1 X103.367 Y85.633 E15.32678
G1 X104.013 Y86.01 E15.35166
G1 X104.615 Y86.453 E15.37652
G1 X105.167 Y86.958 E15.4014
G1 X105.662 Y87.519 E15.42629
G1 X106.094 Y88.13 E15.45117
G1 X106.458 Y88.783 E15.47604
G1 X106.755 Y89.485 E15.50139
G1 X110.166 Y98.936 E15.83558
G1 X112.785 Y98.943 E15.92269
G1 X113.948 Y98.937 E15.96137
G1 X139.105 Y99.009 E16.7981
G1 X139.852 Y99.051 E16.82298
G1 X140.59 Y99.173 E16.84786
G1 X141.311 Y99.372 E16.87274
G1 X142.006 Y99.648 E16.89761
G1 X142.368 Y99.827 E16.91104
G1 X142.884 Y100.101 E16.93047
G1 X143.525 Y100.486 E16.95534
G1 X144.121 Y100.938 E16.98022
G1 X144.735 Y101.525 E17.00848
G1 X145.748 Y102.618 E17.05804
G1 X146.227 Y103.193 E17.08293
G1 X146.641 Y103.816 E17.10781
G1 X147.002 Y104.514 E17.13395
G1 X147.356 Y105.304 E17.16274
G1 X147.625 Y106.002 E17.18762
G1 X147.818 Y106.724 E17.21248
G1 X147.933 Y107.464 E17.23739
G1 X147.968 Y108.166 E17.26076
G1 X147.968 Y108.504 E17.27201
G1 X147.928 Y109.251 E17.29689
G1 X147.809 Y109.989 E17.32175
G1 X147.658 Y110.566 E17.34159
G1 X147.364 Y111.52 E17.37479
G1 X147.105 Y112.222 E17.39968
G1 X146.774 Y112.892 E17.42453
G1 X146.372 Y113.523 E17.44942
G1 X145.906 Y114.108 E17.47429
G1 X145.156 Y114.835 E17.50903
G1 X144.49 Y115.39 E17.53787
G1 X144.231 Y115.66 E17.55031
G1 X143.685 Y116.171 E17.57518
G1 X143.088 Y116.621 E17.60005
G1 X142.445 Y117.005 E17.62496
G1 X141.766 Y117.318 E17.64983
G1 X141.057 Y117.556 E17.6747
G1 X140.326 Y117.718 E17.69961
G1 X139.583 Y117.801 E17.72447
G1 X139.202 Y117.812 E17.73715
G1 X111.256 Y117.891 E18.66664
G1 X111.201 Y118.036 E18.6718
G1 X110.861 Y118.703 E18.6967
G1 X110.452 Y119.329 E18.72157
G1 X110.256 Y119.569 E18.73188
G1 X105.607 Y131.279 E19.15092
G1 X105.294 Y131.958 E19.17579
G1 X104.911 Y132.601 E19.20068
G1 X104.461 Y133.198 E19.22555
G1 X103.95 Y133.745 E19.25045
G1 X103.383 Y134.233 E19.27533
G1 X102.768 Y134.659 E19.30021
G1 X102.111 Y135.016 E19.32508
G1 X101.419 Y135.301 E19.34997
G1 X100.701 Y135.511 E19.37485
G1 X99.965 Y135.643 E19.39972
G1 X99.219 Y135.695 E19.42459
G1 X98.776 Y135.688 E19.43933
G1 X86.145 Y135.101 E19.85989
G1 X85.401 Y135.027 E19.88476
G1 X84.669 Y134.873 E19.90964
G1 X83.957 Y134.642 E19.93454
G1 X83.274 Y134.337 E19.95942
G1 X82.628 Y133.96 E19.98429
G1 X82.025 Y133.517 E20.00918
G1 X81.296 Y132.824 E20.04263
G1 X73.858 Y124.663 E20.40989
G1 X73.385 Y124.084 E20.43476
G1 X72.976 Y123.458 E20.45963
G1 X72.636 Y122.792 E20.4845
G1 X72.369 Y122.093 E20.50939
G1 X72.178 Y121.37 E20.53426
G1 X72.065 Y120.63 E20.55916
G1 X72.04 Y119.624 E20.59263
G1 X73.024 Y98.418 E21.2987
G1 X73.098 Y97.673 E21.3236
G1 X73.252 Y96.941 E21.34848
G1 X73.482 Y96.229 E21.37337
G1 X73.788 Y95.547 E21.39823
G1 X74.164 Y94.9 E21.42312
G1 X74.608 Y94.298 E21.448
G1 X75.301 Y93.568 E21.48148
G1 X83.463 Y86.13 E21.84876
G0 F6000 X83.732 Y86.426
G1 F1200 X84.295 Y85.967 E21.87292
G1 X84.905 Y85.572 E21.89709
G1 X85.555 Y85.248 E21.92125
G1 X86.237 Y84.996 E21.94543
G1 X86.941 Y84.821 E21.96956
G1 X87.661 Y84.724 E21.99372
G1 X88.484 Y84.711 E22.0211
G1 X100.477 Y85.268 E22.42041
G1 X101.2 Y85.342 E22.44459
G1 X101.91 Y85.494 E22.46874
G1 X102.599 Y85.724 E22.4929
G1 X103.259 Y86.028 E22.51706
G1 X103.881 Y86.402 E22.5412
G1 X104.458 Y86.843 E22.56536
G1 X104.984 Y87.345 E22.58954
G1 X105.451 Y87.901 E22.61369
G1 X105.854 Y88.505 E22.63784
G1 X106.189 Y89.15 E22.66202
G1 X106.379 Y89.62 E22.67888
G1 X109.886 Y99.336 E23.02244
G1 X112.786 Y99.343 E23.11889
G1 X113.947 Y99.337 E23.15751
G1 X139.104 Y99.409 E23.99424
G1 X139.829 Y99.451 E24.01839
G1 X140.545 Y99.573 E24.04255
G1 X141.244 Y99.772 E24.06672
G1 X142.18 Y100.18 E24.10068
G1 X142.696 Y100.454 E24.12012
G1 X143.318 Y100.829 E24.14427
G1 X143.895 Y101.271 E24.16845
G1 X144.442 Y101.797 E24.19369
G1 X145.455 Y102.89 E24.24325
G1 X145.918 Y103.449 E24.26739
G1 X146.318 Y104.055 E24.29154
G1 X146.637 Y104.677 E24.31479
G1 X146.991 Y105.467 E24.34359
G1 X147.251 Y106.145 E24.36774
G1 X147.435 Y106.848 E24.39191
G1 X147.541 Y107.567 E24.41608
G1 X147.568 Y108.166 E24.43602
G1 X147.568 Y108.504 E24.44727
G1 X147.528 Y109.229 E24.47142
G1 X147.409 Y109.946 E24.49559
G1 X147.275 Y110.448 E24.51287
G1 X146.981 Y111.402 E24.54607
G1 X146.729 Y112.083 E24.57023
G1 X146.404 Y112.733 E24.5944
G1 X146.01 Y113.342 E24.61852
G1 X145.551 Y113.905 E24.64268
G1 X144.9 Y114.527 E24.67263
G1 X144.223 Y115.091 E24.70194
G1 X143.943 Y115.383 E24.71539
G1 X143.412 Y115.879 E24.73956
G1 X142.829 Y116.313 E24.76373
G1 X142.203 Y116.68 E24.78787
G1 X141.54 Y116.977 E24.81203
G1 X140.848 Y117.198 E24.83619
G1 X140.136 Y117.343 E24.86036
G1 X139.201 Y117.412 E24.89154
G1 X110.982 Y117.492 E25.83011
G1 X110.801 Y117.951 E25.84652
G1 X110.462 Y118.593 E25.87067
G1 X110.054 Y119.194 E25.89483
G1 X109.904 Y119.369 E25.9025
G1 X105.235 Y131.131 E26.3234
G1 X104.931 Y131.791 E26.34757
G1 X104.555 Y132.412 E26.37171
G1 X104.114 Y132.989 E26.39587
G1 X103.612 Y133.514 E26.42003
G1 X103.055 Y133.981 E26.4442
G1 X102.45 Y134.383 E26.46836
G1 X101.805 Y134.717 E26.49252
G1 X101.127 Y134.977 E26.51667
G1 X100.424 Y135.162 E26.54085
G1 X99.706 Y135.268 E26.56499
G1 X98.795 Y135.289 E26.5953
G1 X86.164 Y134.702 E27.01586
G1 X85.441 Y134.628 E27.04003
G1 X84.731 Y134.476 E27.06418
G1 X84.042 Y134.246 E27.08834
G1 X83.382 Y133.942 E27.11251
G1 X82.76 Y133.567 E27.13667
G1 X82.182 Y133.127 E27.16083
G1 X81.592 Y132.555 E27.18816
G1 X74.154 Y124.394 E27.55542
G1 X73.695 Y123.831 E27.57958
G1 X73.301 Y123.221 E27.60373
G1 X72.976 Y122.571 E27.6279
G1 X72.724 Y121.89 E27.65205
G1 X72.549 Y121.185 E27.67621
G1 X72.452 Y120.465 E27.70037
G1 X72.439 Y119.642 E27.72775
G1 X73.423 Y98.436 E28.43382
G1 X73.497 Y97.713 E28.458
G1 X73.649 Y97.003 E28.48215
G1 X73.879 Y96.314 E28.50631
G1 X74.183 Y95.654 E28.53047
G1 X74.557 Y95.032 E28.55461
G1 X74.998 Y94.455 E28.57877
G1 X75.57 Y93.864 E28.60612
G1 X83.732 Y86.426 E28.97341
G0 F6000 X84.002 Y86.721
G1 F1200 X84.548 Y86.278 E28.99679
G1 X85.142 Y85.898 E29.02025
G1 X85.774 Y85.589 E29.04364
G1 X86.437 Y85.353 E29.06705
G1 X87.123 Y85.194 E29.09047
G1 X87.822 Y85.114 E29.11387
G1 X88.466 Y85.111 E29.13529
G1 X100.459 Y85.668 E29.53461
G1 X101.159 Y85.74 E29.55802
G1 X101.846 Y85.892 E29.58142
G1 X102.512 Y86.12 E29.60483
G1 X103.148 Y86.422 E29.62825
G1 X103.745 Y86.795 E29.65166
G1 X104.297 Y87.233 E29.6751
G1 X104.795 Y87.73 E29.6985
G1 X105.233 Y88.281 E29.72191
G1 X105.606 Y88.878 E29.74533
G1 X106.003 Y89.756 E29.77737
G1 X109.605 Y99.735 E30.13024
G1 X112.787 Y99.743 E30.23607
G1 X113.946 Y99.737 E30.27462
G1 X139.103 Y99.809 E31.11135
G1 X139.805 Y99.851 E31.13474
G1 X140.499 Y99.972 E31.15817
G1 X141.174 Y100.172 E31.18159
G1 X141.993 Y100.533 E31.21135
G1 X142.509 Y100.807 E31.23079
G1 X143.111 Y101.172 E31.2542
G1 X143.668 Y101.603 E31.27763
G1 X144.148 Y102.069 E31.29988
G1 X145.161 Y103.162 E31.34944
G1 X145.61 Y103.704 E31.37285
G1 X145.994 Y104.294 E31.39627
G1 X146.272 Y104.841 E31.41667
G1 X146.626 Y105.631 E31.44547
G1 X146.877 Y106.288 E31.46886
G1 X147.052 Y106.97 E31.49228
G1 X147.148 Y107.668 E31.51571
G1 X147.168 Y108.166 E31.53229
G1 X147.168 Y108.504 E31.54353
G1 X147.128 Y109.207 E31.56695
G1 X147.009 Y109.901 E31.59037
G1 X146.893 Y110.33 E31.60515
G1 X146.599 Y111.284 E31.63835
G1 X146.354 Y111.944 E31.66177
G1 X146.035 Y112.572 E31.6852
G1 X145.648 Y113.159 E31.70858
G1 X145.196 Y113.699 E31.732
G1 X144.644 Y114.22 E31.75725
G1 X143.946 Y114.802 E31.78748
G1 X143.654 Y115.106 E31.8015
G1 X143.139 Y115.585 E31.82489
G1 X142.572 Y116.003 E31.84832
G1 X141.962 Y116.354 E31.87173
G1 X141.316 Y116.633 E31.89513
G1 X140.642 Y116.838 E31.91856
G1 X139.949 Y116.964 E31.94199
G1 X139.199 Y117.012 E31.96698
G1 X110.7 Y117.092 E32.91487
G1 X110.667 Y117.21 E32.91894
G1 X110.401 Y117.862 E32.94236
G1 X110.062 Y118.479 E32.96578
G1 X109.656 Y119.054 E32.98919
G1 X109.555 Y119.167 E32.99423
G1 X104.864 Y130.984 E33.4171
G1 X104.567 Y131.622 E33.44051
G1 X104.2 Y132.223 E33.46393
G1 X103.767 Y132.778 E33.48734
G1 X103.274 Y133.281 E33.51077
G1 X102.728 Y133.725 E33.53418
